talent/images/icons/briefcase.svg

<svg width="22" height="20" viewBox="0 0 22 20" fill="none" xmlns="http://www.w3.org/2000/svg">
<path fill-rule="evenodd" clip-rule="evenodd" d="M15.0414 3.58916H19.7714C20.9764 3.58916 21.9567 4.56948 21.9566 5.77443C21.9566 5.89263 21.958 6.00979 21.9594 6.12618C21.9706 7.07275 21.9812 7.9685 21.2393 8.95729C20.77 9.5827 20.1251 10.0288 19.3744 10.2474L12.0842 12.37C11.3623 12.5802 10.5993 12.5801 9.87754 12.37L2.58731 10.2474C1.83656 10.0288 1.19168 9.5827 0.722405 8.95729C-0.0180194 7.97049 -0.00814003 7.08129 0.00250478 6.12319C0.00378426 6.00803 0.00507479 5.89187 0.00507479 5.77443C0.00507479 4.56948 0.985404 3.58916 2.19035 3.58916H6.92039V1.68317C6.92039 0.775639 7.65872 0.0373535 8.56625 0.0373535H13.3955C14.3031 0.0373535 15.0414 0.775639 15.0414 1.68317V3.58916ZM8.56626 1.43141C8.42742 1.43141 8.31445 1.54433 8.31445 1.68317V3.58916H13.6473V1.68317C13.6473 1.54438 13.5344 1.43141 13.3955 1.43141H8.56626Z" fill="#AEBBCD"/>
<path d="M19.7642 11.5858C11.9008 13.8753 12.0026 13.9216 10.9809 13.9216C9.96655 13.9216 10.2072 13.9178 2.19768 11.5858C1.35318 11.3399 0.60527 10.8867 0.00512695 10.2618V16.9514C0.00512695 18.1564 0.985412 19.1366 2.1904 19.1366H19.7715C20.9764 19.1366 21.9567 18.1564 21.9567 16.9514V10.2618C21.3565 10.8866 20.6086 11.3399 19.7642 11.5858Z" fill="#AEBBCD"/>
</svg>

<svg width="22" height="20" fill="none" xmlns="http://www.w3.org/2000/svg"><path fill-rule="evenodd" clip-rule="evenodd" d="M15.041 3.59h4.73c1.205 0 2.186.98 2.186 2.184l.002.352c.012.947.022 1.842-.72 2.831a3.558 3.558 0 01-1.865 1.29l-7.29 2.123a3.94 3.94 0 01-2.206 0l-7.29-2.123a3.558 3.558 0 01-1.866-1.29c-.74-.987-.73-1.876-.72-2.834.002-.115.003-.231.003-.349 0-1.205.98-2.185 2.185-2.185h4.73V1.683c0-.907.74-1.646 1.646-1.646h4.83c.907 0 1.645.739 1.645 1.646V3.59zM8.566 1.43a.252.252 0 00-.252.252V3.59h5.333V1.683a.252.252 0 00-.252-.252H8.567z" fill="#AEBBCD"/><path d="M19.764 11.586c-7.863 2.29-7.761 2.336-8.783 2.336-1.014 0-.774-.004-8.783-2.336a4.936 4.936 0 01-2.193-1.324v6.69c0 1.204.98 2.185 2.185 2.185h17.581c1.205 0 2.186-.98 2.186-2.186v-6.69a4.937 4.937 0 01-2.193 1.325z" fill="#AEBBCD"/></svg>
